X: 3
T:Plygiad y Bedol Fach
T:The Bend of the little Horse-Shoe
M:3/8
L:1/16
Q:70
C:Trad
S:51 Welsh Airs
R:Waltz
A:Wales
H:From a facsimile c.1840: A Choice Collection of Fifty-One Welsh Airs
H:adapted for The Harp, Piano-Forte, Harpsichord,
H:Violin, or Flute by Edward Jones
H:"Harper to His Late Majesty King George IV, when
H:Prince of Wales".
Z:brian_martin12345@yahoo.com
K:G
"Maestoso"
dc|B2G2G2|G4 dc|B2G2G2|G2A2B2|.c2cded|c2c2B2|A2A2B2|A4B2|!
c3edc|B2B>cA>B|.G2G>BA>c|B3A G/A/B/c/|d2dedc|B2BcBA|B2G2F2|G4:||
